X:1
T:Title
%%score { ( 1 3 ) | ( 2 4 ) }
L:1/8
Q:1/4=100
M:6/8
K:Db
V:1 treble nm="Grand Piano"
V:3 treble 
V:2 bass 
V:4 bass 
V:1
 [FA][_F=G][=FA] [Fd]>[Ac][_GB] | [FA]3 [DF]3 | [GB][FA][EG] F2 A | E6 | %4
w: H.~L.~Gilmour * * * * *||||
 [FA][_F=G][=FA] [Fd]>[Ac][_GB] | [FA]3 [A,DF]3 | [B,DE][B,DF][B,DG] [A,DF]2[K:bass] [G,CE] | %7
w: |||
 [F,D]6 | [Fd]3 z3 | [Ec]3 z3 | B[Ac][=Gd] .[Ge]2 [DGB] | A6 | [Fd][Fd][Fd] FGA | c3 B3 | %14
w: |||||||
 AAA B2 c | d2- [Gd-] [Fd]3 |] %16
w: ||
V:2
 [D,D][D,D][D,D] [D,A,]>[D,A,][D,D] | [D,D]3 [D,A,]3 | [D,G,][D,A,][D,A,] [D,A,D]2 [F,A,D] | %3
 [A,C]6 | [D,A,][D,B,][D,D] [D,A,]>[D,A,][D,D] | [D,D]3 D,3 | G,,G,,G,, A,,2 A,, | D,6 | %8
 [D,A,]F,A, [D,A,]3 | [A,,A,]C,E, [A,E]3 | [E,=G,E][E,A,][E,B,] z[K:treble] d[K:bass]E, | %11
 A,,C,E, A,3 | [D,A,][D,A,][D,A,] [D,A,D][E,A,C][F,D] | [G,DA]3 [G,DG]3 | %14
 [A,DF][A,DF][A,DF] [A,CG]2 [A,EG] | z A,B, A,3 |] %16
V:3
 x6 | x6 | x6 | x6 | x6 | x6 | x5[K:bass] x | x6 | z .A,2 [Fd]3 | z A,A, c3 | x6 | %11
 [CE]2 [CE] [CG]3 | x6 | x6 | x6 | .[DF]3 z3 |] %16
V:4
 x6 | x6 | x6 | x6 | x6 | x6 | x6 | x6 | x6 | x6 | z3 .[E,B,]3[K:treble][K:bass] | x6 | x6 | x6 | %14
 x6 | D,6 |] %16

